X: 345
T: Bir Alev Bir Işık...
C: Avni Anıl
O: Turkey
F: http://compmusic.upf.edu/node/140
N: nihavent--sarki--semai--bir_alev--avni_anil
N: makam= nihavent
N: form= sarki
N: usul= semai = 3/4
M: 3/4
L: 1/16
K: C _B _e  
Q: 1/4=168
%%MIDI tuningsystem comma53
b8 a2g2  | g8 f2e2  | d4 e4 ^f4  | g12  | d2e2 d4 z4  | \
w:  ARANAĞME  |   |   |   |   | 
c2d2 c4 z4  | B2c2 B4 z4  | 
w:   |   | 
A2B2 A2B2 G4  | b8 a2g2  | g8 f2e2  | d4 e4 ^f4  | g12  | \
w:   |  ARANAĞME  |   |   |   | 
d2e2 d4 z4  | c2d2 c4 z4  | 
w:   |   | 
B2c2 B4 z4  | A2B2 A2B2 G4  | D2G2 D2G2 G2G2  | \
w:   |   |   | 
D2G2 D2G2 G2G2  | 
w:   | 
D2G2 D2G2 G2G2  | D2G2 D2G2 G2G2  | G8 B4  | d12  | \
w:   |   |  Bir  a  |  lev   | 
g8 ^f2e2  | d12  | c4 d4 c4  | 
w:  bir  ı  |  şık   |  se nin   | 
d4 c2B2 A2B2  | G4 B4 d4  | G12  | G8 B4  | d12  | \
w:  ba kı  |  şın   SAZ  |   |  Bir  a  |  lev   | 
d8 ^f2g2  | a12  | b4 a2g2 ^f4  | g4 ^f2e2 e2d2  | 
w:  Bir  ı  |  şık   |  se nin   |  ba kı  | 
d8 =e4  | f12  | f8 f4  | f4 e4 d4  | d4 e4 f4  | g12  | \
w:  şın   SAZ  |   |  Göz le  |  rin   |  i çim  |  de   | 
g4 f2e2 d2c2  | d4 c2B2 B2A2  | 
w:  ya nar   |  gi bi  | 
A8 B2c2  | d12  | G8 B4  | d4 c4 B4  | e4 e8  | \
w:  dir   SAZ  |   |  Göz le  |  rin   |  i çim  | 
d4 c4 B4  | B4 d8  | d4 c2B2 A2B2  | 
w:  de   |  ya nar   |  gi bi  | 
G8 g4  | a12  | a8 a4  | a4 ^f4 d4  | b8 b4  | \
w:  dir   SAZ  |   |  Göğ sü  |  ne   |  bir  tu  | 
b4 a4 g4  | ^f4 g4 a4  | b4 a2g2 ^f2g2  | 
w:  tam   |  çi çek   |  ta kı  | 
a8 b4  | c'12  | c'8 (3b2a2g2  | ^f12  | g2^f2 g4 e4  | d12  | \
w:  şın   SAZ  |   |  Göğ sü  |  ne   |  bir  *  *  tu  |  tam   | 
c4 d4 c4  | d2c2 B4 c4  | d8 =e4  | 
w:  çi çek   |  ta *  kı  |  şın   SAZ  | 
f12  | f8 f4  | f4 e4 d4  | d4 e4 f4  | g12  | \
w:   |  Bir  ba  |  har   |  i çin  |  de   | 
g4 f2e2 d2c2  | d4 c2B2 B2A2  | A8 B2c2  | 
w:  ba har   |  gi bi  |  dir   SAZ  | 
d12  | G8 B4  | d4 c4 B4  | e4 e8  | d4 c4 B4  | \
w:   |  Bir  ba  |  har   |  i çin  |  de   | 
B4 d8  | d4 c2B2 A2B2  | G4 B4 d4  | 
w:  ba har   |  gi bi  |  dir   SAZ  | 
G12  | b8 a2g2  | g8 f2e2  | d4 e4 ^f4  | g12  | \
w:   |  ARANAĞME  |   |   |   | 
d2e2 d4 z4  | c2d2 c4 z4  | B2c2 B4 z4  | 
w:   |   |   | 
A2B2 A2B2 G4  | b8 a2g2  | g8 f2e2  | d4 e4 ^f4  | g12  | \
w:   |  ARANAĞME  |   |   |   | 
d2e2 d4 z4  | c2d2 c4 z4  | 
w:   |   | 
B2c2 B4 z4  | A2B2 A2B2 G4  | D2G2 D2G2 G2G2  | \
w:   |   |   | 
D2G2 D2G2 G2G2  | 
w:   | 
D2G2 D2G2 G2G2  | D2G2 D2G2 G2G2  | G8 B4  | d12  | \
w:   |   |  Baş ka  |  dır   | 
g8 ^f2e2  | d12  | c4 d4 c4  | 
w:  sev di  |  ğim   |  se nin   | 
d2c2 B4 A2B2  | G4 B4 d4  | G12  | G8 B4  | d12  | \
w:  göz *  *  le  |  rin   SAZ  |   |  Baş ka  |  dır   | 
d8 ^f2g2  | a12  | b4 a2g2 ^f4  | g4 ^f2e2 e2d2  | 
w:  sev di  |  ğim   |  se nin   |  göz *  *  le  | 
d8 =e4  | f12  | f4 f8  | f4 e4 d4  | d4 e4 f4  | g12  | \
w:  rin   SAZ  |   |  Ba kı  |  şın   |  o  ka  |  dar   | 
g4 f2e2 d2c2  | d4 c2B2 B2A2  | 
w:  es rar  |  lı  de  | 
A8 B2c2  | d12  | z4 G4 B4  | d4 c4 B4  | e4 e8  | \
w:  rin   SAZ  |   |  Ba kı  |  şın   |  o  ka  | 
d4 c4 B4  | B4 d8  | d4 c2B2 A2B2  | 
w:  dar   |  es rar  |  lı  de  | 
G8 g4  | a12  | a8 a4  | a4 ^f4 d4  | b8 b4  | \
w:  rin   SAZ  |   |  Doğ ru   |  da   |  ol ma  | 
b4 a4 g4  | ^f4 g4 a4  | b4 a2g2 ^f2g2  | 
w:  sa   |  söy *  le  |  dik *  *  le rin    | 
a8 b4  | c'12  | c'8 (3b2a2g2  | ^f12  | g2^f2 g4 e4  | d12  | \
w:  SAZ  |   |  Doğ ru   |  da   |  ol *  *  ma  |  sa   | 
c4 d4 c4  | d2c2 B4 c4  | d8 =e4  | 
w:  söy *  le  |  dik *  *  le  |  rin   SAZ  | 
f12  | f8 f4  | f4 e4 d4  | d4 e4 f4  | g12  | \
w:   |  Gön lüm   |  o   |  söz *  le  |  re   | 
g4 f2e2 d2c2  | d4 c2B2 B2A2  | A8 B2c2  | 
w:  ka nar   |  gi bi  |  dir   SAZ  | 
d12  | G8 B4  | d4 c4 B4  | e8 e4  | d4 c4 B4  | \
w:   |  Gön lüm   |  o   |  söz le  |  re   | 
B4 d8  | d4 c2B2 A2B2  | G4 B4 d4  | 
w:  ka nar   |  gi bi  |  dir   SAZ  | 
G12  | |


